X:1
T:Scotts Bluff, 87.87 D
T:Scotts Bluff, 87.87 D
T:F. R., 1903
T:Public Domain Courtesy of the Cyber Hymnal™
C:F. R., 1903
Z:Public Domain
Z:Courtesy of the Cyber Hymnal™
%%score ( 1 2 ) ( 3 4 )
L:1/8
Q:1/4=100
M:4/4
K:F
V:1 treble 
V:2 treble 
V:3 bass 
V:4 bass 
V:1
 [FA]2 [Ec]2 ([FA][EG]) ([CF][EG]) | [FA]2 ([EG]>[EA]) [EG]2 F z | [FB]2 [FA]2 [Ed]2 [Fc]2 | %3
 F2 (GA) [EG]3 z | [FA]2 [Gc]2 (AG) (FG) | [^CA]2 (G>A) [EG]2 [DF] z | [DG]2 [Fd]2 [Fd]2 [Fc]2 | %7
!<(! [EB]2 [CE]2!<)! [CF]3 z | [FA]2 ([DF]>[EG]) [DA]2 ([DF]>[EG]) | [FA]2 [Ad]2 [Ad]2 [A^c] z | %10
 [Fe]2 [Fd]2 [DB]2 [DG]2 | (FG) (Ac) [EG]3 z | [CA]2 [_Ad]2 [Ad]2 [Gc]2 | [DF]2 [DB]2 [EB]2 [FA]2 | %14
 [DG]2 [Fd]2 [Fd]2 [Fc]2 | [EB]2 [CE]2 [CF]2 |] %16
V:2
 x8 | x6 F x | x8 | F2 F2 x4 | x4 F2 D2 | x2 D2 x4 | x8 | x8 | x8 | x8 | x8 | C2 F2 x4 | x8 | x8 | %14
 x8 | x6 |] %16
V:3
 [F,C]2 [F,B,]2 (CB,) (A,B,) | [F,C]2 ([C,B,]>[C,B,]) [C,B,]2 [F,A,] z | D2 [CF]2 [B,C]2 [A,C]2 | %3
 [D,D]2 [G,=B,]2 [C,C]3 z | [F,C]2 [E,C]2 [D,D]2 [D,A,]2 | [A,,A,]2 [B,,D,]2 [C,B,]2 [D,A,] z | %6
 [B,,G,]2 [=B,,^G,]2 [C,A,]2 [C,A,]2 | [C,G,]2 [C,B,]2 [F,A,]3 z | %8
 [D,A,]2 [D,B,]2 [D,F,]2 [D,B,]2 | [D,A,]2 [F,A,]2 [A,F]2 [A,,E] z | %10
 [B,,B,]2 [D,B,]2 [^E,B,]2 [G,B,]2 | [C,A,]2 [C,A,]2 [C,B,]3 z | [F,A,]2 [F,=B,]2 [F,B,]2 [E,C]2 | %13
 [D,D]2 [D,F,]2 [C,G,]2 F,2 | [B,,G,]2 [=B,,^G,]2 [C,A,]2 [C,A,]2 | [C,G,]2 [C,B,]2 [F,A,]2 |] %16
V:4
 x4 F,2 F,2 | x8 | D2 x6 | x8 | x8 | x8 | x8 | x8 | x8 | x8 | x8 | x8 | x8 | x6 F,2 | x8 | x6 |] %16

